resources/svg/wordpress.svg

<svg xmlns="http://www.w3.org/2000/svg" viewBox="0 0 15 15" fill="currentColor"><path d="M1.49945 3C2.86776 1.17833 5.04627 0 7.5 0C11.6421 0 15 3.35786 15 7.5C15 11.6421 11.6421 15 7.5 15C3.35786 15 0 11.6421 0 7.5C0 6.23591 0.312732 5.04486 0.865047 4H2.12789L5.021 13.6437C5.08426 13.8545 5.278 13.9992 5.49815 14C5.7183 14.0008 5.91305 13.8575 5.9778 13.647L7.51917 8.63759L9.021 13.6437C9.08209 13.8473 9.26527 13.99 9.47765 13.9995C9.69004 14.009 9.88519 13.8831 9.96415 13.6857L13.4949 4.85883C13.8557 3.95678 13.5663 2.92483 12.7891 2.3419L12.6571 2.24286C11.9713 1.72858 11.0285 1.72858 10.3428 2.24286C9.49067 2.88193 9.31798 4.09076 9.95705 4.94286L10.5999 5.8L11.3999 5.2L10.7571 4.34286C10.4494 3.93259 10.5325 3.35056 10.9428 3.04286C11.2729 2.79524 11.7269 2.79524 12.0571 3.04286L12.1891 3.1419C12.6046 3.45353 12.7593 4.00521 12.5664 4.48744L9.56741 11.985L7.17192 4H8V3H5V4H6.12789L7.00266 6.91588L5.50596 11.7801L3.17193 4H4V3H1.49945Z" fill="black"/></svg>

<svg xmlns="http://www.w3.org/2000/svg" viewBox="0 0 15 15" fill="currentColor"><path d="M1.5 3a7.5 7.5 0 11-.634 1h1.262l2.893 9.644a.5.5 0 00.957.003l1.541-5.01 1.502 5.007a.5.5 0 00.943.042l3.53-8.827a2.149 2.149 0 00-.705-2.517l-.132-.1a1.929 1.929 0 00-2.7 2.7l.643.858.8-.6-.643-.857a.929.929 0 011.3-1.3l.132.099c.416.312.57.863.377 1.345l-2.999 7.498L7.172 4H8V3H5v1h1.128l.875 2.916-1.497 4.864L3.172 4H4V3H1.5z" fill="currentColor"/></svg>
